X: 05015
T: CHAPMAN'S JIG
C: Bob McQuillen 12 Aug 80
B: Bob's Note Book 5 #15
%R: jig
Z: 2021 John Chambers <jc:trillian.mit.edu>
M: 6/8
L: 1/8
K: Em
e \
| Bed gba | gee e2f | gdB GAB | ded B2A |\
| Bef gba | gee gfe | dBG Aed | Bee e2 :|
|: f \
| gee bee | gfe dBA | Bee dBe | ded def |\
| gee bgg | ded B2A | Beg aga | bee e2 :|
%%begintext align
%% One of
%% my ex-school boys named Mark Chapman
%% likes contra dances pretty well - I
%% hope this tune turns out as good as
%% you did, Mark.
%%endtext
